X:23
T:Blooming Meadows, The
R:single jig
Z:id:hn-slide-23
M:6/8
K:G
D2G G2A|B2B cAG|F2D D2E|F2G AFD|
D2G G2A|BAG ABc|ded cAF|1 GAG G2E:|2 GAG GBd||
|:g2d d^cd|g2a bag|f2d d^cd|f2g afd|1 g2d d^cd|
g2a bag|fed cAF|GAG GBd:|2 gfe fed|ged ^cde|fed cAF|GAG G2A||
|:B2d c2A|B2d cAG|F2D D2E|F2G AFD|
B2d c2A|BAG ABc|ded cAF|1 GAG G2A:|2 GAG G2E||
